X: 1
T: Planxty George Brabazon
M: 4/4
L: 1/8
K: Gmaj
ge|"G"d2G2 "Am"cBAG|"G"d2G2 "Am"cBAG|e2A2 ABcd|e2 A2 A2 Bd|
"G"edcB g2fe|"Am"edcB "C"cBAG|"G"BAGE "D"DEGA|"G"B2 G2 G2:|]
ga|"G"b2 gb "D"a2fa|"Em"g2 eg edcB|"Am"e2 A2 ABcd|e2 A2 A2 ga|
"G"b2 gb "D"a2 fa|"Em"g2 eg edcB|"C"cBAG "D"DEGA|"G"B2 G2 G2:|]


